src/assets/mediaicons/youtube.svg

<svg fill="none" height="21" viewBox="0 0 31 21" width="31" xmlns="http://www.w3.org/2000/svg" xmlns:xlink="http://www.w3.org/1999/xlink"><clipPath id="a"><path d="m0 0h31v21h-31z"/></clipPath><g clip-path="url(#a)"><path d="m31 6.58301c0-3.63507-3.0462-6.58301-6.8025-6.58301h-17.395c-3.75627 0-6.8025 2.94794-6.8025 6.58301v7.83399c0 3.6351 3.04623 6.583 6.8025 6.583h17.395c3.7563 0 6.8025-2.9479 6.8025-6.583zm-10.2309 4.50349-7.8011 3.7348c-.3053.1595-1.3451-.0544-1.3451-.3916v-7.66539c0-.34084 1.0473-.55478 1.3526-.38617l7.4676 3.93056c.3129.1723.6426.611.3241.7778z" fill="#fff"/></g></svg>

<svg width="31" height="21" viewBox="0 0 31 21" fill="none" xmlns="http://www.w3.org/2000/svg">
<g clip-path="url(#clip0_320_10)">
<path d="M31 6.58301C31 2.94794 27.9538 0 24.1975 0H6.8025C3.04623 0 0 2.94794 0 6.58301V14.417C0 18.0521 3.04623 21 6.8025 21H24.1975C27.9538 21 31 18.0521 31 14.417V6.58301ZM20.7691 11.0865L12.968 14.8213C12.6627 14.9808 11.6229 14.7669 11.6229 14.4297V6.76431C11.6229 6.42347 12.6702 6.20953 12.9755 6.37814L20.4431 10.3087C20.756 10.481 21.0857 10.9197 20.7672 11.0865H20.7691Z" fill="white"/>
</g>
<defs>
<clipPath id="clip0_320_10">
<rect width="31" height="21" fill="white"/>
</clipPath>
</defs>
</svg>
